www/assets/icons/style.svg

<svg width="24" height="24" viewBox="0 0 24 24" xmlns="http://www.w3.org/2000/svg" fill='currentColor'><path d="M2.79225 19.4L4.13225 19.96V10.93L1.70225 16.79C1.29225 17.81 1.78225 18.98 2.79225 19.4ZM22.2922 15.7L17.3322 3.73C17.0222 2.98 16.2922 2.52 15.5222 2.5C15.2622 2.5 14.9922 2.54 14.7322 2.65L7.36225 5.7C6.61225 6.01 6.15225 6.73 6.13225 7.5C6.12224 7.77 6.17225 8.04 6.28225 8.3L11.2422 20.27C11.5522 21.03 12.2922 21.49 13.0722 21.5C13.3322 21.5 13.5922 21.45 13.8422 21.35L21.2022 18.3C22.2222 17.88 22.7122 16.71 22.2922 15.7ZM8.14225 8.5C7.59225 8.5 7.14225 8.05 7.14225 7.5C7.14225 6.95 7.59225 6.5 8.14225 6.5C8.69225 6.5 9.14225 6.95 9.14225 7.5C9.14225 8.05 8.69225 8.5 8.14225 8.5ZM6.14225 19.5C6.14225 20.6 7.04225 21.5 8.14225 21.5H9.59225L6.14225 13.16V19.5Z"/></svg>

<svg xmlns="http://www.w3.org/2000/svg" width="24" height="24" viewBox="0 0 24 24" fill='currentColor'><path d="m2.792 19.4 1.34.56v-9.03l-2.43 5.86c-.41 1.02.08 2.19 1.09 2.61m19.5-3.7-4.96-11.97a2.01 2.01 0 0 0-1.81-1.23c-.26 0-.53.04-.79.15L7.362 5.7a2 2 0 0 0-1.08 2.6l4.96 11.97a2 2 0 0 0 2.6 1.08l7.36-3.05a1.994 1.994 0 0 0 1.09-2.6M8.142 8.5c-.55 0-1-.45-1-1s.45-1 1-1 1 .45 1 1-.45 1-1 1m-2 11c0 1.1.9 2 2 2h1.45l-3.45-8.34z"/></svg>
